X:1
T:Title
%%score { 1 | 2 }
L:1/8
Q:1/4=100
M:6/8
K:G
V:1 treble nm="Grand Piano"
V:2 bass 
V:1
 B2 A B2 A | [B,G]3 [B,D]3 | [B,G]3 [EA]3 | [^DB]3- [DB]2 [B,FA] | [B,EG]2 [B,^DF] [B,EG]2 [A,DF] | %5
w: Robert~Lowry * * *|||||
 [G,E]3 [G,DG]3 | [CEA]3 [CDF]3 | [B,DG]6 |] %8
w: |||
V:2
 [G,D]2 [D,F,D] [G,D]2 [D,F,C] | [G,,G,]3 [G,,G,]3 | [E,G,]3 [C,E,]3 | [B,,F,]3- [B,,F,]2 B,, | %4
 E,2 B,, E,2 B,, | C,3 B,,3 | A,,3 D,3 | G,,6 |] %8

